X: 3983
T: Blacksmith's, The
R: reel
M: 4/4
K: Dmajor
AF F2 AFDF|AF F2 EFGE|AF F2 AFDF|GEFD EFGE|
AF F2 AFDF|AF F2 EFGE|AF F2 AFDF|GEFD EFGE||
D2 FD ADFD|D2 FA GEcE|D2 FD ADFD|GEFD EFGE|
D2 FD ADFD|D2 FA GEcE|D2 FD FADF|GEFD EFGE||

